src/images/facebook.svg

<svg height="36" viewBox="0 0 19.368 36" width="19.368" xmlns="http://www.w3.org/2000/svg"><path d="m13.257 19.332v-6.875h5.543v-3.457a9.047 9.047 0 0 1 2.429-6.372 7.727 7.727 0 0 1 5.888-2.628h5.508v6.876h-5.508a1.213 1.213 0 0 0 -.971.594 2.412 2.412 0 0 0 -.432 1.458v3.528h6.911v6.875h-6.912v16.669h-6.913v-16.668z" fill="#f8f8f6" transform="translate(-13.257)"/></svg>

<svg xmlns="http://www.w3.org/2000/svg" width="19.368" height="36" viewBox="0 0 19.368 36">
  <path id="Icon_zocial-facebook" data-name="Icon zocial-facebook" d="M13.257,19.332V12.457H18.8V9a9.047,9.047,0,0,1,2.429-6.372A7.727,7.727,0,0,1,27.117,0h5.508V6.876H27.117a1.213,1.213,0,0,0-.971.594,2.412,2.412,0,0,0-.432,1.458v3.528h6.911v6.875H25.713V36H18.8V19.332Z" transform="translate(-13.257)" fill="#f8f8f6"/>
</svg>
